X:1
T:Title
%%score ( 1 2 ) { 3 | 4 }
L:1/8
Q:1/4=145
M:3/2
K:Bb
V:1 treble nm="Grand Piano, Unnamed-000"
V:2 treble 
V:3 bass nm="Choir Pad, Faben, 87.87 D"
V:4 bass 
V:1
 [DF]2 [DF]2 [DF]6 [Fd]2 | [Ec]2 [Fd]2 [DB]4 [DF]4 | [B,F]2 [B,F]2 [CE]6 [EG]2 | %3
w: By~John~Henry~Willcox,~1849 * * *|||
 [DF]2 [CE]2 [CE]4 [B,D]4 | [A,E]2 [A,E]2 [B,F]6 [Fd]2 | [Ec]2 [Fd]2 [DB]4 [DF]4 | %6
w: |||
 [DB]2 [B,B]2 [CA]6 [CG]2 | [CF]2 [B,=E]2 [A,F]8 | [CF]2 [CF]2 [DG]6 [DG]2 | %9
w: |||
 [EA]2 [EA]2 [DB]4 [DB]4 | [DG]2 [DG]2 [_DG]6 [DB]2 | [_DA]2 [DG]2 G4 ^F4 | %12
w: |||
 [EF]2 [EF]2 [DF]6 [Fd]2 | [Ec]2 [Dd]2 [DB]4 [B,F]4 | [C^F]2 [CF]2 [B,G]2 [Ec]2 [DB]4 | %15
w: |||
 [CA]4 [DB]8- | [DB]4 z4 z4 |] %17
w: ||
V:2
 x12 | x12 | x12 | x12 | x12 | x12 | x12 | x12 | x12 | x12 | x12 | z4 =D8 | x12 | x12 | x12 | x12 | %16
 x12 |] %17
V:3
 B,2 B,2 B,6 F,2 | G,2 A,2 B,4 B,4 | B,2 B,2 B,4 A,2 A,2 | A,2 A,2 B,4 F,4 | F,2 F,2 F,6 F,2 | %5
 G,2 A,2 B,4 B,4 | B,2 G,2 F,6 B,2 | A,2 G,2 F,8 | A,2 A,2 B,6 B,2 | C2 C2 B,4 B,4 | %10
 B,2 B,2 B,6 G,2 | A,2 B,2 B,4 A,4 | A,2 A,2 B,6 B,2 | A,2 A,2 G,4 F,4 | A,2 A,2 G,2 G,2 F,4 | %15
 F,4 F,8- | F,4 z4 z4 |] %17
V:4
 B,,2 B,,2 B,,6 B,,2 | B,,2 B,,2 B,,4 B,,4 | D,2 D,2 F,6 F,2 | F,2 F,2 B,,8 | C,2 C,2 D,6 B,,2 | %5
 B,,2 B,,2 B,,4 B,,4 | G,,2 G,,2 C,6 C,2 | C,2 C,2 F,,8 | F,2 F,2 F,6 F,2 | F,2 F,2 G,4 G,4 | %10
 G,2 G,2 E,6 E,2 | E,2 E,2 D,8 | F,2 F,2 B,,6 B,,2 | F,2 ^F,2 z4 D,4 | D,2 D,2 E,2 C,2 z4 | %15
 F,,4 B,,8- | B,,4 z4 z4 |] %17

